assets/icons/bowtie/1.22/uE685-tfvc-compare.svg

<svg xmlns="http://www.w3.org/2000/svg" viewBox="0 0 448 448" enable-background="new 0 0 448 448"><path d="M384 297.814v-137.147c.514-6.739 2.407-46.557-21.686-73.18-14.104-15.585-33.724-23.487-58.314-23.487h-27.372l40.686-40.686-22.627-22.628-79.314 79.314 79.314 79.314 22.627-22.628-40.686-40.686h27.372c15.326 0 26.611 4.208 34.499 12.862 16.313 17.898 13.604 49.286 13.58 49.545l-.079.795v138.612c-32.023 7.298-56 35.985-56 70.186 0 39.701 32.299 72 72 72s72-32.299 72-72c0-34.201-23.977-62.888-56-70.186zm-16 110.186c-22.056 0-40-17.944-40-40s17.944-40 40-40 40 17.944 40 40-17.944 40-40 40zm-214.686-119.313l-22.628 22.627 40.687 40.686h-27.373c-15.326 0-26.611-4.207-34.5-12.862-16.312-17.898-13.604-49.285-13.58-49.546l.08-.794v-138.612c32.023-7.298 56-35.985 56-70.186 0-39.701-32.299-72-72-72s-72 32.299-72 72c0 34.201 23.977 62.888 56 70.186v137.146c-.514 6.739-2.408 46.558 21.686 73.181 14.104 15.585 33.724 23.487 58.314 23.487h27.373l-40.687 40.687 22.628 22.627 79.314-79.314-79.314-79.313zm-113.314-208.687c0-22.056 17.944-40 40-40s40 17.944 40 40-17.944 40-40 40-40-17.944-40-40z"/></svg>

<svg xmlns="http://www.w3.org/2000/svg" viewBox="0 0 448 448"><path d="M384 297.814V160.667c.514-6.74 2.407-46.557-21.686-73.18C348.21 71.902 328.59 64 304 64h-27.372l40.686-40.686L294.687.686 215.373 80l79.314 79.314 22.627-22.628L276.628 96H304c15.326 0 26.61 4.208 34.5 12.862 16.312 17.898 13.603 49.286 13.58 49.545l-.08.795v138.612c-32.023 7.298-56 35.985-56 70.186 0 39.7 32.3 72 72 72s72-32.3 72-72c0-34.2-23.977-62.888-56-70.186zM368 408c-22.056 0-40-17.944-40-40s17.944-40 40-40 40 17.944 40 40-17.944 40-40 40zM153.314 288.687l-22.628 22.627L171.373 352H144c-15.326 0-26.61-4.207-34.5-12.862-16.312-17.898-13.604-49.285-13.58-49.546l.08-.794V150.186c32.023-7.298 56-35.985 56-70.186 0-39.7-32.3-72-72-72S8 40.3 8 80c0 34.2 23.977 62.888 56 70.186v137.146c-.514 6.74-2.408 46.558 21.686 73.18C99.79 376.1 119.41 384 144 384h27.373l-40.687 40.687 22.628 22.627L232.628 368l-79.314-79.313zM40 80c0-22.056 17.944-40 40-40s40 17.944 40 40-17.944 40-40 40-40-17.944-40-40z"/></svg>
